svg/other/bedside_table_2_fill.svg

<svg xmlns="http://www.w3.org/2000/svg" width="24" height="24" viewBox="0 0 24 24"><g fill="none" fill-rule="evenodd"><path d="M24,0 L24,24 L0,24 L0,0 L24,0 Z M12.5935,23.2578 L12.5819,23.2595 L12.5109,23.295 L12.4919,23.2987 L12.4767,23.295 L12.4057,23.2595 C12.3958,23.2564 12.387,23.259 12.3821,23.2649 L12.378,23.2758 L12.3609,23.7031 L12.3659,23.7235 L12.3769,23.7357 L12.4805,23.8097 L12.4953,23.8136 L12.5071,23.8097 L12.6107,23.7357 L12.6233,23.7197 L12.6267,23.7031 L12.6096,23.2758 C12.6076,23.2657 12.601,23.2593 12.5935,23.2578 Z M12.8584,23.1453 L12.8445,23.1473 L12.6598,23.2397 L12.6499,23.2499 L12.6472,23.2611 L12.6651,23.6906 L12.6699,23.7034 L12.6784,23.7105 L12.8793,23.8032 C12.8914,23.8069 12.9022,23.803 12.9078,23.7952 L12.9118,23.7812 L12.8777,23.1665 C12.8753,23.1546 12.8674,23.147 12.8584,23.1453 Z M12.143,23.1473 C12.1332,23.1424 12.1222,23.1453 12.1156,23.1526 L12.1099,23.1665 L12.0758,23.7812 C12.0751,23.7927 12.0828,23.8019 12.0926,23.8046 L12.1083,23.8032 L12.3092,23.7105 L12.3186,23.7024 L12.3225,23.6906 L12.3404,23.2611 L12.3372,23.2485 L12.3278,23.2397 L12.143,23.1473 Z"/><path fill="#09244B" d="M11,3 L11,19 L8.61803,19 L7.89443,20.4472 C7.64744,20.9412 7.04676,21.1414 6.55279,20.8944 C6.09409429,20.6650429 5.88868301,20.1307959 6.05943285,19.6601211 L6.10557,19.5528 L6.38197,19 L5,19 C3.94563773,19 3.08183483,18.18415 3.00548573,17.1492661 L3,17 L3,5 C3,3.94563773 3.81587733,3.08183483 4.85073759,3.00548573 L5,3 L11,3 Z M19,3 C20.0543909,3 20.9181678,3.81587733 20.9945144,4.85073759 L21,5 L21,17 C21,18.0543909 20.18415,18.9181678 19.1492661,18.9945144 L19,19 L17.618,19 L17.8944,19.5528 C18.1414,20.0468 17.9412,20.6474 17.4472,20.8944 C16.9884857,21.1237571 16.4378561,20.9675184 16.1637731,20.5485043 L16.1056,20.4472 L15.382,19 L13,19 L13,3 L19,3 Z M8,9 C7.48716857,9 7.06449347,9.38604429 7.0067278,9.88337975 L7,10 L7,12 C7,12.5523 7.44772,13 8,13 C8.51283143,13 8.93550653,12.613973 8.9932722,12.1166239 L9,12 L9,10 C9,9.44772 8.55228,9 8,9 Z M16,9 C15.4477,9 15,9.44772 15,10 L15,12 C15,12.5523 15.4477,13 16,13 C16.5523,13 17,12.5523 17,12 L17,10 C17,9.44772 16.5523,9 16,9 Z"/></g></svg>

<svg xmlns="http://www.w3.org/2000/svg" width="24" height="24"><g fill="none" fill-rule="evenodd"><path d="M24 0v24H0V0zM12.594 23.258l-.012.002-.071.035-.02.004-.014-.004-.071-.036c-.01-.003-.019 0-.024.006l-.004.01-.017.428.005.02.01.013.104.074.015.004.012-.004.104-.074.012-.016.004-.017-.017-.427c-.002-.01-.009-.017-.016-.018m.264-.113-.014.002-.184.093-.01.01-.003.011.018.43.005.012.008.008.201.092c.012.004.023 0 .029-.008l.004-.014-.034-.614c-.003-.012-.01-.02-.02-.022m-.715.002a.023.023 0 0 0-.027.006l-.006.014-.034.614c0 .012.007.02.017.024l.015-.002.201-.093.01-.008.003-.011.018-.43-.003-.012-.01-.01z"/><path fill="#09244B" d="M11 3v16H8.618l-.724 1.447a1 1 0 0 1-1.835-.787l.047-.107.276-.553H5a2 2 0 0 1-1.995-1.85L3 17V5a2 2 0 0 1 1.85-1.995L5 3zm8 0a2 2 0 0 1 1.995 1.85L21 5v12a2 2 0 0 1-1.85 1.995L19 19h-1.382l.276.553a1 1 0 0 1-1.73.996l-.058-.102L15.382 19H13V3zM8 9a1 1 0 0 0-.993.883L7 10v2a1 1 0 0 0 1.993.117L9 12v-2a1 1 0 0 0-1-1m8 0a1 1 0 0 0-1 1v2a1 1 0 1 0 2 0v-2a1 1 0 0 0-1-1"/></g></svg>
